Sources/FrostedUI/Resources/Icons.xcassets/couponActive32.imageset/coupon-active-32.svg

<svg width="32" height="32" viewBox="0 0 32 32" fill="none" xmlns="http://www.w3.org/2000/svg" data-fui-icon="true">
  <path
    d="M10.4951 1C11.2785 1.00013 11.8868 1.51071 12.1748 2.10352C12.8644 3.52335 14.3187 4.5 16 4.5C17.6813 4.5 19.1356 3.52335 19.8252 2.10352C20.1132 1.51071 20.7215 1.00013 21.5049 1H25.75C27.2688 1 28.5 2.23122 28.5 3.75V28.25C28.5 29.7688 27.2688 31 25.75 31H21.5049C20.7215 30.9999 20.1132 30.4893 19.8252 29.8965C19.1356 28.4766 17.6813 27.5 16 27.5C14.3187 27.5 12.8644 28.4766 12.1748 29.8965C11.8868 30.4893 11.2785 30.9999 10.4951 31H6.25C4.73122 31 3.5 29.7688 3.5 28.25V3.75C3.5 2.23122 4.73122 1 6.25 1H10.4951ZM6.25 2.5C5.55964 2.5 5 3.05964 5 3.75V28.25C5 28.9404 5.55964 29.5 6.25 29.5H10.4951C10.5852 29.4999 10.7316 29.4329 10.8252 29.2402C11.7562 27.3237 13.7229 26 16 26C18.2771 26 20.2438 27.3237 21.1748 29.2402C21.2684 29.433 21.4148 29.4999 21.5049 29.5H25.75C26.4404 29.5 27 28.9404 27 28.25V3.75C27 3.05964 26.4404 2.5 25.75 2.5H21.5049C21.4148 2.50015 21.2684 2.56705 21.1748 2.75977C20.2438 4.67634 18.2771 6 16 6C13.7229 6 11.7562 4.67634 10.8252 2.75977C10.7316 2.56705 10.5852 2.50015 10.4951 2.5H6.25ZM20 17.5C21.3807 17.5 22.5 18.6193 22.5 20C22.5 21.3807 21.3807 22.5 20 22.5C18.6193 22.5 17.5 21.3807 17.5 20C17.5 18.6193 18.6193 17.5 20 17.5ZM20.7197 10.2197C21.0126 9.92683 21.4874 9.92683 21.7803 10.2197C22.0732 10.5126 22.0732 10.9874 21.7803 11.2803L11.2803 21.7803C10.9874 22.0732 10.5126 22.0732 10.2197 21.7803C9.92683 21.4874 9.92683 21.0126 10.2197 20.7197L20.7197 10.2197ZM20 19C19.4477 19 19 19.4477 19 20C19 20.5523 19.4477 21 20 21C20.5523 21 21 20.5523 21 20C21 19.4477 20.5523 19 20 19ZM12 9.5C13.3807 9.5 14.5 10.6193 14.5 12C14.5 13.3807 13.3807 14.5 12 14.5C10.6193 14.5 9.5 13.3807 9.5 12C9.5 10.6193 10.6193 9.5 12 9.5ZM12 11C11.4477 11 11 11.4477 11 12C11 12.5523 11.4477 13 12 13C12.5523 13 13 12.5523 13 12C13 11.4477 12.5523 11 12 11Z"
    fill="currentColor"
  />
</svg>

<svg xmlns="http://www.w3.org/2000/svg" width="32" height="32" fill="none" data-fui-icon="true" viewBox="0 0 32 32"><path fill="currentColor" d="M10.495 1c.784 0 1.392.51 1.68 1.104a4.25 4.25 0 0 0 7.65 0C20.113 1.51 20.721 1 21.505 1h4.245a2.75 2.75 0 0 1 2.75 2.75v24.5A2.75 2.75 0 0 1 25.75 31h-4.245c-.784 0-1.392-.51-1.68-1.104a4.25 4.25 0 0 0-7.65 0c-.288.593-.897 1.104-1.68 1.104H6.25a2.75 2.75 0 0 1-2.75-2.75V3.75A2.75 2.75 0 0 1 6.25 1zM6.25 2.5C5.56 2.5 5 3.06 5 3.75v24.5c0 .69.56 1.25 1.25 1.25h4.245c.09 0 .237-.067.33-.26a5.75 5.75 0 0 1 10.35 0c.093.193.24.26.33.26h4.245c.69 0 1.25-.56 1.25-1.25V3.75c0-.69-.56-1.25-1.25-1.25h-4.245c-.09 0-.237.067-.33.26a5.75 5.75 0 0 1-10.35 0c-.093-.193-.24-.26-.33-.26zM20 17.5a2.5 2.5 0 1 1 0 5 2.5 2.5 0 0 1 0-5m.72-7.28a.75.75 0 0 1 1.06 1.06l-10.5 10.5a.75.75 0 1 1-1.06-1.06zM20 19a1 1 0 1 0 0 2 1 1 0 0 0 0-2m-8-9.5a2.5 2.5 0 1 1 0 5 2.5 2.5 0 0 1 0-5m0 1.5a1 1 0 1 0 0 2 1 1 0 0 0 0-2"/></svg>
